X: 13258
T: Five And Drive
R: reel
M: 4/4
K: Eminor
M:5/4
|:"Intro Riff"e3 d3 B2 A2|B3 E3 G2 B2|A3 F3 E2 D2|E1
:|
|:E3 FGB A2 GA|B3 AGA AB B2|E3 FGB A2 GA|1 BdBA GA B2 B2:|2 BdBA GA B2 Bd ]
|:e3 ged BAGE|G2 GEGA B2 Bd|e2 egab ageg|edBA Bd e2 e2:|

